X:7
T:Solo Mazurka, The
R:mazurka
M:3/4
L:1/8
K:D
Ad|f2 gf ed|c2 A2 (3Bcd|e2 ef ed|c2 A2 de|f2 gf ed|c2 A2 (3Bcd|e2 ef ec|
1d2 d2 :|2d2 dB Ad |
|:f2 fe (3dff|a2 a2 (3Adf|e2 e2 ag|f2 dB Ad|f2 fe (3dff|a2 a2 (3dfa|b2 b
a ge|1d2 dB Ad :|2 d2 d2 ||
